dist/images/Sunder-Tarot-logo.svg

<svg width="60" height="72" viewBox="0 0 60 72" fill="none" xmlns="http://www.w3.org/2000/svg">
<path fill-rule="evenodd" clip-rule="evenodd" d="M0 30C0 13.4315 13.4315 0 30 0C46.5685 0 60 13.4315 60 30V72H0V30ZM40.1698 13L40.1289 13.0026C39.7587 19.6272 34.5653 24.9639 28.003 25.5584C28.0019 25.595 28.0009 25.6317 28 25.6685C34.7694 26.2802 40.083 31.9382 40.1494 38.8513C40.2198 31.5283 46.178 25.6137 53.5176 25.6137C53.6791 25.6137 53.8399 25.6165 54 25.6222L53.9995 25.6049C53.8396 25.6106 53.6789 25.6135 53.5176 25.6135C46.3877 25.6135 40.5614 20.032 40.1698 13ZM22.8621 32.0379L22.9155 32.0345C23.4277 41.2302 31.0466 48.529 40.3704 48.529C40.5813 48.529 40.7913 48.5253 41.0004 48.5179L41.001 48.5404C40.7917 48.533 40.5815 48.5293 40.3704 48.5293C30.7725 48.5293 22.9812 56.2636 22.8889 65.8396C22.8018 56.7996 15.8533 49.4008 7.00098 48.6009C7.0021 48.5529 7.00342 48.5049 7.00494 48.457C15.5865 47.6797 22.3779 40.7009 22.8621 32.0379Z" fill="#FAF8EF"/>
</svg>

<svg width="60" height="72" viewBox="0 0 60 72" fill="none" xmlns="http://www.w3.org/2000/svg"><path fill-rule="evenodd" clip-rule="evenodd" d="M0 30C0 13.431 13.431 0 30 0c16.569 0 30 13.431 30 30v42H0V30zm40.17-17l-.041.003c-.37 6.624-5.564 11.96-12.126 12.555a19.69 19.69 0 00-.003.11c6.77.612 12.083 6.27 12.15 13.183.07-7.323 6.028-13.237 13.368-13.237.161 0 .322.002.482.008v-.017c-.16.006-.321.008-.482.008-7.13 0-12.957-5.581-13.348-12.613zM22.862 32.038l.054-.003c.512 9.195 8.13 16.494 17.454 16.494.211 0 .421-.004.63-.011l.001.022c-.21-.007-.42-.01-.63-.01-9.599 0-17.39 7.734-17.482 17.31C22.802 56.8 15.853 49.4 7 48.6l.004-.143c8.582-.777 15.373-7.756 15.857-16.42z" fill="#FAF8EF"/></svg>
